picto/cog-railway-left.svg

<svg class="color-immutable" width="24" height="24" viewBox="0 0 24 24" fill="none" xmlns="http://www.w3.org/2000/svg"><path d="M0 22.5V1.5C0 0.675 0.675 0 1.5 0H22.5C23.325 0 24 0.675 24 1.5V22.5C24 23.325 23.325 24 22.5 24H1.5C0.675 24 0 23.325 0 22.5Z" fill="#2D327D"/><path d="M2.99902 3V3.376L21 4.951V4.575L2.99902 3Z" fill="white"/><path d="M11.308 17.819L7.53503 17.488C7.77803 18.363 8.57603 18.968 9.48303 18.968C10.261 18.968 10.972 18.522 11.308 17.819Z" fill="white"/><path d="M15.568 7.198L11.631 4.445L7.27502 6.473L9.34802 8.16L4.64102 7.749C4.61302 7.746 4.58502 7.744 4.55602 7.744C4.05102 7.744 3.62902 8.131 3.58402 8.634L2.94402 15.956C2.94202 15.967 2.94202 15.977 2.94202 15.988C2.94202 16.182 3.09102 16.345 3.28502 16.362L21 17.914V13.621L16.883 13.262C16.689 13.244 16.541 13.082 16.541 12.888C16.541 12.877 16.542 12.867 16.542 12.856L16.804 9.866C16.821 9.673 16.982 9.524 17.177 9.524C17.188 9.524 17.199 9.524 17.21 9.526L21 9.858V9.18L13.233 8.5L15.568 7.198ZM6.56702 8.971L6.30602 11.96C6.28902 12.154 6.12702 12.303 5.93302 12.303C5.92202 12.303 5.91202 12.302 5.90002 12.301L4.29402 12.161H4.29302C4.10002 12.143 3.95102 11.982 3.95102 11.787C3.95102 11.776 3.95202 11.766 3.95202 11.755L4.21402 8.766C4.23002 8.572 4.39302 8.423 4.58702 8.423C4.59802 8.423 4.60902 8.423 4.62002 8.424L6.22502 8.565C6.42002 8.582 6.56902 8.744 6.56902 8.938C6.56902 8.95 6.56902 8.961 6.56702 8.971ZM8.38902 9.243L8.01602 13.502C7.99102 13.793 7.74802 14.015 7.45602 14.015C7.14602 14.015 6.89402 13.763 6.89402 13.453C6.89402 13.436 6.89402 13.42 6.89602 13.403L7.26802 9.145C7.29402 8.854 7.53602 8.632 7.82802 8.632C8.13802 8.632 8.39102 8.884 8.39102 9.195C8.39002 9.211 8.39002 9.227 8.38902 9.243ZM10.182 9.4L9.80902 13.659C9.78402 13.95 9.54102 14.173 9.24902 14.173C8.93902 14.173 8.68702 13.921 8.68702 13.61C8.68702 13.593 8.68802 13.578 8.68902 13.561L9.06302 9.303C9.08702 9.012 9.33102 8.789 9.62202 8.789C9.93302 8.789 10.185 9.041 10.185 9.352C10.183 9.368 10.183 9.384 10.182 9.4ZM8.53702 6.63L11.564 5.222L14.298 7.135L12.035 8.396L10.547 8.266L8.53702 6.63ZM15.79 9.402C15.984 9.419 16.132 9.581 16.132 9.775C16.132 9.786 16.132 9.797 16.131 9.808L15.869 12.796C15.852 12.99 15.691 13.139 15.496 13.139C15.485 13.139 15.474 13.139 15.463 13.137L10.942 12.742C10.749 12.725 10.6 12.563 10.6 12.369C10.6 12.358 10.601 12.347 10.601 12.337L10.863 9.348C10.88 9.154 11.041 9.005 11.236 9.005C11.247 9.005 11.258 9.006 11.268 9.007L15.79 9.402Z" fill="white"/><path d="M15.791 18.21L12.017 17.88C12.26 18.755 13.058 19.36 13.966 19.36C14.745 19.361 15.455 18.913 15.791 18.21Z" fill="white"/><path d="M2.99902 19.425L21 21.001V20.36L2.99902 18.785V19.425Z" fill="white"/></svg>

<svg class="color-immutable" width="24" height="24" viewBox="0 0 24 24" fill="none" xmlns="http://www.w3.org/2000/svg"><g clip-path="url(#a)"><path d="M0 22.5v-21C0 .675.675 0 1.5 0h21c.825 0 1.5.675 1.5 1.5v21c0 .825-.675 1.5-1.5 1.5h-21C.675 24 0 23.325 0 22.5Z" fill="#2D327D"/><path d="M2.999 3v.376L21 4.951v-.376L2.999 3ZM11.308 17.819l-3.773-.331a2.022 2.022 0 0 0 3.773.331ZM15.568 7.198l-3.937-2.753-4.356 2.028L9.348 8.16l-4.707-.411a.977.977 0 0 0-1.057.885l-.64 7.322c-.002.011-.002.021-.002.032 0 .194.149.357.343.374L21 17.914v-4.293l-4.117-.359a.376.376 0 0 1-.342-.374l.001-.032.262-2.99a.374.374 0 0 1 .406-.34l3.79.332V9.18l-7.767-.68 2.335-1.302ZM6.567 8.971l-.261 2.989a.375.375 0 0 1-.373.343l-.033-.002-1.606-.14h-.001a.376.376 0 0 1-.342-.374l.001-.032.262-2.989a.374.374 0 0 1 .406-.342l1.605.141a.375.375 0 0 1 .344.373c0 .012 0 .023-.002.033Zm1.822.272-.373 4.259a.56.56 0 0 1-1.122-.049c0-.017 0-.033.002-.05l.372-4.258a.562.562 0 0 1 1.123.05l-.002.048Zm1.793.157-.373 4.259a.562.562 0 0 1-1.122-.049l.002-.049.374-4.258a.56.56 0 0 1 1.122.049l-.003.048ZM8.537 6.63l3.027-1.408 2.734 1.913-2.263 1.261-1.488-.13-2.01-1.636Zm7.253 2.772a.374.374 0 0 1 .342.373l-.001.033-.262 2.988a.374.374 0 0 1-.373.343c-.011 0-.022 0-.033-.002l-4.521-.395a.375.375 0 0 1-.342-.373l.001-.032.262-2.989a.374.374 0 0 1 .405-.341l4.522.395ZM15.791 18.21l-3.774-.33a2.023 2.023 0 0 0 3.774.33ZM2.999 19.425 21 21.001v-.641L2.999 18.785v.64Z" fill="#fff"/></g><defs><clipPath id="a"><path fill="#fff" d="M0 0h24v24H0z"/></clipPath></defs></svg>
